Obsidian-SemiLight/actions/24s/im-user-busy.svg

<svg viewBox="0 0 24 24" xmlns="http://www.w3.org/2000/svg"><path d="m12 4a3.99999 4.00003 0 0 0 -4 4 3.99999 4.00003 0 0 0 4 4 3.99999 4.00003 0 0 0 4-4 3.99999 4.00003 0 0 0 -4-4zm0 1a3 3.00003 0 0 1 3 3 3 3.00003 0 0 1 -3 3 3 3.00003 0 0 1 -3-3 3 3.00003 0 0 1 3-3zm0 8a7.99995 8.00003 0 0 0 -7.9277344 7h1.0078125a6.99996 7.00003 0 0 1 6.9199219-6 6.99996 7.00003 0 0 1 1 .080078v-1.009766a7.99995 8.00003 0 0 0 -1-.070312zm4.5 0a3.5 3.5 0 0 0 -3.5 3.5 3.5 3.5 0 0 0 3.5 3.5 3.5 3.5 0 0 0 3.5-3.5 3.5 3.5 0 0 0 -3.5-3.5zm-.5 1h1v2h1v1h-1-1v-1z" fill="#f47750"/><path d="m16 14v3h1 1v-1h-1v-2z" fill="#fff"/></svg>

<?xml version="1.0" encoding="UTF-8" standalone="no"?>
<svg
   xmlns:dc="http://purl.org/dc/elements/1.1/"
   xmlns:cc="http://creativecommons.org/ns#"
   xmlns:rdf="http://www.w3.org/1999/02/22-rdf-syntax-ns#"
   xmlns:svg="http://www.w3.org/2000/svg"
   xmlns="http://www.w3.org/2000/svg"
   xmlns:sodipodi="http://sodipodi.sourceforge.net/DTD/sodipodi-0.dtd"
   xmlns:inkscape="http://www.inkscape.org/namespaces/inkscape"
   viewBox="0 0 24 24"
   id="svg2"
   version="1.1"
   inkscape:version="0.91 r13725"
   sodipodi:docname="im-user-busy.svg">
  <metadata
     id="metadata18">
    <rdf:RDF>
      <cc:Work
         rdf:about="">
        <dc:format>image/svg+xml</dc:format>
        <dc:type
           rdf:resource="http://purl.org/dc/dcmitype/StillImage" />
      </cc:Work>
    </rdf:RDF>
  </metadata>
  <defs
     id="defs16" />
  <sodipodi:namedview
     pagecolor="#ffffff"
     bordercolor="#666666"
     borderopacity="1"
     objecttolerance="10"
     gridtolerance="10"
     guidetolerance="10"
     inkscape:pageopacity="0"
     inkscape:pageshadow="2"
     inkscape:window-width="828"
     inkscape:window-height="480"
     id="namedview14"
     showgrid="true"
     inkscape:zoom="27.812867"
     inkscape:cx="16.120468"
     inkscape:cy="7.5282487"
     inkscape:window-x="0"
     inkscape:window-y="0"
     inkscape:window-maximized="0"
     inkscape:current-layer="svg2">
    <inkscape:grid
       type="xygrid"
       id="grid4155" />
  </sodipodi:namedview>
  <path
     style="fill:#f47750"
     d="M 12 4 A 3.99999 4.00003 0 0 0 8 8 A 3.99999 4.00003 0 0 0 12 12 A 3.99999 4.00003 0 0 0 16 8 A 3.99999 4.00003 0 0 0 12 4 z M 12 5 A 3 3.00003 0 0 1 15 8 A 3 3.00003 0 0 1 12 11 A 3 3.00003 0 0 1 9 8 A 3 3.00003 0 0 1 12 5 z M 12 13 A 7.99995 8.00003 0 0 0 4.0722656 20 L 5.0800781 20 A 6.99996 7.00003 0 0 1 12 14 A 6.99996 7.00003 0 0 1 13 14.080078 L 13 13.070312 A 7.99995 8.00003 0 0 0 12 13 z M 16.5 13 A 3.5 3.5 0 0 0 13 16.5 A 3.5 3.5 0 0 0 16.5 20 A 3.5 3.5 0 0 0 20 16.5 A 3.5 3.5 0 0 0 16.5 13 z M 16 14 L 17 14 L 17 16 L 18 16 L 18 17 L 17 17 L 16 17 L 16 16 L 16 14 z "
     id="path8" />
  <path
     style="fill:#ffffff;fill-opacity:1;stroke:none;stroke-width:2;stroke-miterlimit:4;stroke-dasharray:none;stroke-dashoffset:0;stroke-opacity:1"
     d="M 16 14 L 16 17 L 17 17 L 18 17 L 18 16 L 17 16 L 17 14 L 16 14 z "
     id="rect4157" />
</svg>
